X: 14539
T: Gan Ainm
R: reel
M: 4/4
K: Dminor
|:dD (3DDD DFED|CDEC DEB,D|G,B,~B,2 A,B,CE|DEFG ADFA|
dD (3DDD DFED|CDEC DEB,D|G,B,~B,2 A,B,CE|1 DEFE DEFA:|2 DEFE DEFG||
|:Ad~d2 adgd|fedf ec~c2|A=BcA dcAd|cAGc AF~F2|
Ad~d2 adgd|fedf ec~c2|A=BcA dcAd|1 cAFA DEFG:|2 cAFA DEFA||

